local/share/icons/dracula-icons-main/22/actions/mesh-gradient.svg

<svg xmlns="http://www.w3.org/2000/svg" width="22" height="22" version="1.1" viewBox="0 0 22 22">
 <defs>
  <style id="current-color-scheme" type="text/css">
   .ColorScheme-Text { color:#FFFFFF; } .ColorScheme-Highlight { color:#5294e2; }
  </style>
 </defs>
 <path style="opacity:0.3;fill:currentColor" class="ColorScheme-Text" d="m 7.7988301,3.7694612 c -0.8405099,0.0524 -1.8082599,0.3152599 -2.9668,0.8945299 l -0.33594,0.16797 0.1679701,0.33594 c 0.72764,1.45528 0.89251,2.49874 0.80664,3.35742 -0.0859,0.85869 -0.43164,1.5566399 -0.80664,2.3066399 -0.375,0.75 -0.77923,1.55205 -0.88086,2.56836 -0.10163,1.01631 0.1085,2.22286 0.88086,3.76758 l 0.16797,0.33594 0.33594,-0.16797 c 1.45528,-0.72764 2.49874,-0.89251 3.35742,-0.80664 0.8586899,0.0859 1.5566398,0.43164 2.3066398,0.80664 0.75,0.375 1.55205,0.77923 2.56836,0.88086 1.01631,0.10163 2.22286,-0.1085 3.76758,-0.88086 l 0.33594,-0.16797 -0.16797,-0.33594 c -0.72764,-1.45527 -0.89251,-2.49874 -0.80664,-3.35742 0.0859,-0.85868 0.43164,-1.55664 0.80664,-2.30664 0.375,-0.75 0.77922,-1.5520499 0.88086,-2.5683599 0.10163,-1.01632 -0.1085,-2.22286 -0.88086,-3.76758 l -0.16797,-0.33594 -0.33594,0.16797 c -1.45528,0.72764 -2.49873,0.89251 -3.35742,0.80664 -0.85869,-0.0859 -1.55664,-0.43164 -2.30664,-0.80664 -0.75,-0.375 -1.5520499,-0.77923 -2.5683598,-0.88086 -0.25408,-0.0254 -0.52061,-0.0311 -0.80078,-0.0137 z"/>
 <path style="fill:currentColor" class="ColorScheme-Text" d="M 3.0000002,3 V 6 H 6.0000001 V 3 Z M 16,3 v 3 h 3 V 3 Z M 3.0000002,16 v 3 h 3 V 16 Z M 16,16 v 3 h 3 v -3 z"/>
</svg>

<?xml version="1.0" encoding="UTF-8"?>
<svg xmlns="http://www.w3.org/2000/svg" xmlns:xlink="http://www.w3.org/1999/xlink" width="22" height="22" viewBox="0 0 22 22">
<defs>
<filter id="filter-remove-color" x="0%" y="0%" width="100%" height="100%">
<feColorMatrix color-interpolation-filters="sRGB" values="0 0 0 0 1 0 0 0 0 1 0 0 0 0 1 0 0 0 1 0" />
</filter>
<mask id="mask-0">
<g filter="url(#filter-remove-color)">
<rect x="-2.2" y="-2.2" width="26.4" height="26.4" fill="rgb(0%, 0%, 0%)" fill-opacity="0.3"/>
</g>
</mask>
<clipPath id="clip-0">
<rect x="0" y="0" width="22" height="22"/>
</clipPath>
<g id="source-10795" clip-path="url(#clip-0)">
<path fill-rule="nonzero" fill="rgb(100%, 100%, 100%)" fill-opacity="1" d="M 7.800781 3.769531 C 6.957031 3.820312 5.992188 4.085938 4.832031 4.664062 L 4.496094 4.832031 L 4.664062 5.167969 C 5.390625 6.625 5.554688 7.667969 5.46875 8.523438 C 5.386719 9.382812 5.039062 10.082031 4.664062 10.832031 C 4.289062 11.582031 3.886719 12.382812 3.78125 13.398438 C 3.679688 14.417969 3.890625 15.625 4.664062 17.167969 L 4.832031 17.503906 L 5.167969 17.335938 C 6.625 16.609375 7.667969 16.445312 8.523438 16.527344 C 9.382812 16.613281 10.082031 16.960938 10.832031 17.335938 C 11.582031 17.710938 12.382812 18.113281 13.398438 18.214844 C 14.417969 18.320312 15.625 18.109375 17.167969 17.335938 L 17.503906 17.167969 L 17.335938 16.832031 C 16.609375 15.375 16.445312 14.332031 16.53125 13.472656 C 16.613281 12.617188 16.960938 11.917969 17.335938 11.167969 C 17.710938 10.417969 18.113281 9.617188 18.21875 8.597656 C 18.320312 7.582031 18.109375 6.375 17.335938 4.832031 L 17.167969 4.496094 L 16.832031 4.664062 C 15.375 5.390625 14.332031 5.554688 13.476562 5.46875 C 12.617188 5.382812 11.917969 5.039062 11.167969 4.664062 C 10.417969 4.289062 9.617188 3.882812 8.601562 3.78125 C 8.34375 3.757812 8.078125 3.753906 7.800781 3.769531 Z M 7.800781 3.769531 "/>
</g>
</defs>
<g mask="url(#mask-0)">
<use xlink:href="#source-10795"/>
</g>
<path fill-rule="nonzero" fill="rgb(100%, 100%, 100%)" fill-opacity="1" d="M 3 3 L 3 6 L 6 6 L 6 3 Z M 16 3 L 16 6 L 19 6 L 19 3 Z M 3 16 L 3 19 L 6 19 L 6 16 Z M 16 16 L 16 19 L 19 19 L 19 16 Z M 16 16 "/>
</svg>
